svg/fluentui-system-icons/ic_fluent_image_multiple_32_filled.svg

<svg width="32" height="32" viewBox="0 0 32 32" fill="none" xmlns="http://www.w3.org/2000/svg">
<path d="M7 3C4.79086 3 3 4.79086 3 7V21C3 21.7452 3.20376 22.4427 3.55859 23.04L12.3929 14.6475C13.2935 13.7919 14.7065 13.7919 15.6071 14.6475L24.4414 23.04C24.7962 22.4427 25 21.7452 25 21V7C25 4.79086 23.2091 3 21 3H7ZM23.0232 24.4513L14.2296 16.0975C14.1009 15.9752 13.8991 15.9752 13.7704 16.0975L4.9768 24.4513C5.57036 24.8 6.26183 25 7 25H21C21.7382 25 22.4296 24.8 23.0232 24.4513ZM20 10.5C20 11.3284 19.3284 12 18.5 12C17.6716 12 17 11.3284 17 10.5C17 9.67157 17.6716 9 18.5 9C19.3284 9 20 9.67157 20 10.5ZM10.5 28.5C9.01946 28.5 7.72677 27.6956 7.03516 26.5H21C24.0376 26.5 26.5 24.0376 26.5 21V7.03513C27.6956 7.72674 28.5 9.01943 28.5 10.5V21C28.5 25.1421 25.1422 28.5 21 28.5H10.5Z" fill="#212121"/>
</svg>

<svg xmlns="http://www.w3.org/2000/svg" width="32" height="32"><path d="M7 3a4 4 0 0 0-4 4v14c0 .745.204 1.443.559 2.04l8.834-8.392a2.333 2.333 0 0 1 3.214 0l8.834 8.392A3.982 3.982 0 0 0 25 21V7a4 4 0 0 0-4-4H7Zm16.023 21.451-8.793-8.354a.333.333 0 0 0-.46 0l-8.793 8.354A3.982 3.982 0 0 0 7 25h14c.738 0 1.43-.2 2.023-.549ZM20 10.5a1.5 1.5 0 1 1-3 0 1.5 1.5 0 0 1 3 0Zm-9.5 18a3.998 3.998 0 0 1-3.465-2H21a5.5 5.5 0 0 0 5.5-5.5V7.035c1.196.692 2 1.984 2 3.465V21a7.5 7.5 0 0 1-7.5 7.5H10.5Z"/></svg>
